X: 699
T: Aggie White's
R: hornpipe
M: 4/4
K: Gmajor
|:zF|GG BG DG Bd|gg fg eg dB|c2 ec (3Bcd GB|AD (3FGA dB cA|
GG BG DG Bd|~g2 fg eg dB|c2 ec (3Bcd GB|AD FA ~G2:|
|:(3Bcd|gB dg fA df|e^c AG AD FA|GB dB ce ag|fA eA d2 (3 def|
gB dg fA df|e^c AG AD FA|GB dB ce ag|fd cA ~G2:|

